!!!COM: Bach, Johann Sebastian
!!!OPR: Joh. Seb. Bachs vierstimmige Choralgesänge
!!!XEN: Four-part Chorales
!!!OTL: 171. Was bist du doch, o Seele, so betrübet
!!!SCT: BWV 424
!!!SCA: Thematisch-systematisches Verzeichnis der musikalischen Werke Johann Sebastian Bach: Bach-Werke-Verzeichnis (Schmieder)
!!!YOR: Bach Gesellschaft Edition xxxix
!!!ENC: Steven Rasmussen
!!!CDT: 1685/3//-1750/7/28/
!!!OCY: Deutschland
!!!YEC: Copyright (c) 1994, 2000 Center for Computer Assisted Research in the Humanities
!!!YEM: Rights to all derivative editions reserved
!!!YEN: United States of America
**kern	**kern	**kern	**kern	**silbe
*I:[BASSO]	*I:[TENORE]	*I:[ALTO]	*I:[SOPRANO]	*I:[SOPRANO]
*>[A,A,B]	*>[A,A,B]	*>[A,A,B]	*>[A,A,B]	*
*>A	*>A	*>A	*>A	*
*clefF4	*clefGv2	*clefG2	*clefG2	*
*k[]	*k[]	*k[]	*k[]	*
*a:	*a:	*a:	*a:	*
*M4/4	*M4/4	*M4/4	*M4/4	*
=1-	=1-	=1-	=1-	=1-
4r	4r	4r	4r	.
4AA	8cL	4a	4ee	Wasdass
.	8dJ	.	.	.
4A	4e	4a	4.cc	bistdir
4E	8.eL	4g#	.	.
.	.	.	8b	duder
.	16dJk	.	.	.
=2	=2	=2	=2	=2
4AA;	4c;	4e;	4a;	doch,Herr
4A	4c	4a	4ee	oein
4D	4B	4a	4ff	See-Kreuz
4E	4B	4g#	8eeL	-le,zu
.	.	.	8ddJ	.
=3	=3	=3	=3	=3
4A	8AL	4e	4cc	sotra-
.	8cJ	.	.	.
4F	8BL	4a	4dd	be--gen
.	8AJ	.	.	.
4E	4B	4g#	4ee	-trÃ¼-gie-
4E;	4B;	4g#;	4ee;	-bet,-bet?
=4:|!	=4:|!	=4:|!	=4:|!	=4:|!
*>B	*>B	*>B	*>B	*
4r	4r	4r	4r	.
4AA	4e	4a	4cc	Was
4BB	4d	4g	4.dd	grÃ¤mst
4BB	4d	4f	.	.
.	.	.	8g	du
=5	=5	=5	=5	=5
2C;	2c;	(4f	2g;	dich
.	.	4e;)	.	.
4r	4r	4r	4r	.
4BB	4d	4g	4dd	so
=6	=6	=6	=6	=6
4C	4c	4g	4.ee	Ã¤ng-
4E	8cL	4g	.	.
.	8B-J	.	8cc	-stig-
2F;	2A;	2f;	2cc;	-lich,
=7	=7	=7	=7	=7
4r	4r	4r	4r	.
4E	4c#	4g	4ee	als
4D	4d	8fL	4ff	wÃ¼r-
.	.	8aJ	.	.
4E	8dL	4g#	4ee	-dest
.	8cnJ	.	.	.
=8	=8	=8	=8	=8
4F	8cL	8aL	4dd	du
.	8BJ	8dJ	.	.
4E	8BL	4e	4cc	drum
.	8AJ	.	.	.
4D	8AL	4f	4.b	nicht
.	8G#J	.	.	.
4C	8G#L	4e	.	.
.	8AJ	.	8a	von
=9	=9	=9	=9	=9
4BB	4B	4d	8g#L	Gott
.	.	.	8eeJ	.
4AA	4e	4a	8ddL	ge-
.	.	.	8ccJ	.
4E	4.e	4a	2b	-lie-
4EE	.	4g#	.	.
.	8d	.	.	.
=10	=10	=10	=10	=10
2AA;	2c#;	2e;	2a;	-bet?
==|!	==|!	==|!	==|!	==|!
*-	*-	*-	*-	*-
!!!RWG: Key is interpreted using the Humdrum key tool.
!!!URL-pdf: https://s9.imslp.org/files/imglnks/usimg/6/6b/IMSLP24489-PMLP09471-CCARH_Bach_Chorales.pdf#page=118 Musedata edition
!!!URL-pdf: https://s9.imslp.org/files/imglnks/usimg/7/7a/IMSLP04155-Bach_-_BGA_253-438.pdf#page=93 	Bach-Gesellschaft Ausgabe, Band 39 (pp.175-276) Leipzig: Breitkopf und Härtel, 1892. Plate B.W. XXXIX.
!!!END: 1994/08/08
!!!EMD: Converted from MuseData to Humdrum Dec 19, 2000, by Andreas Kornstaedt using muse2kern.
!!!EED: Craig Stuart Sapp
!!!EEV: 2024/03/31
!!!ONB: Some non-unicode characters
!!!filter-keyboard: satb2gs
